lib/brands/icons/apple-messages.svg

<svg xmlns="http://www.w3.org/2000/svg" fill="none" aria-hidden="true" viewBox="0 0 48 48"><g id="apple-messages-Icon"><g id="Group"><path id="bg" fill="url(#paint0_linear_94_17155)" d="M6 18.3429C6 14.0225 6 11.8622 6.84081 10.2121C7.5804 8.76054 8.76054 7.5804 10.2121 6.84081C11.8622 6 14.0225 6 18.3429 6H29.6571C33.9775 6 36.1378 6 37.7879 6.84081C39.2395 7.5804 40.4196 8.76054 41.1592 10.2121C42 11.8622 42 14.0225 42 18.3429V29.6571C42 33.9775 42 36.1378 41.1592 37.7879C40.4196 39.2395 39.2395 40.4196 37.7879 41.1592C36.1378 42 33.9775 42 29.6571 42H18.3429C14.0225 42 11.8622 42 10.2121 41.1592C8.76054 40.4196 7.5804 39.2395 6.84081 37.7879C6 36.1378 6 33.9775 6 29.6571V18.3429Z"/><path id="message" fill="white" d="M24.0001 33C30.3909 33 35.5716 28.6828 35.5716 23.3572C35.5716 18.0315 30.3909 13.7143 24.0001 13.7143C17.6094 13.7143 12.4287 18.0315 12.4287 23.3572C12.4287 26.7328 14.5101 29.7033 17.6618 31.426C17.5563 32.2835 17.2392 33.4277 16.2859 34.2857C18.0886 33.9612 19.5273 33.3092 20.6021 32.5775C21.6766 32.8522 22.8176 33 24.0001 33Z"/></g></g><defs><linearGradient id="paint0_linear_94_17155" x1="24" x2="24" y1="6" y2="42" gradientUnits="userSpaceOnUse"><stop stop-color="#5AF575"/><stop offset="1" stop-color="#13BD2C"/></linearGradient></defs></svg>

<svg xmlns="http://www.w3.org/2000/svg" fill="none" aria-hidden="true" viewBox="0 0 48 48"><path fill="url(#a)" d="M6 18.343c0-4.32 0-6.48.84-8.13a7.714 7.714 0 0 1 3.372-3.372C11.862 6 14.022 6 18.342 6h11.315c4.32 0 6.48 0 8.13.84a7.714 7.714 0 0 1 3.372 3.372c.841 1.65.841 3.81.841 8.13v11.315c0 4.32 0 6.48-.84 8.13a7.714 7.714 0 0 1-3.372 3.372c-1.65.841-3.81.841-8.13.841H18.342c-4.32 0-6.48 0-8.13-.84a7.714 7.714 0 0 1-3.372-3.372C6 36.138 6 33.978 6 29.658V18.342Z"/><path fill="#fff" d="M24 33c6.39 0 11.572-4.317 11.572-9.643 0-5.325-5.181-9.643-11.572-9.643-6.39 0-11.571 4.318-11.571 9.643 0 3.376 2.081 6.346 5.233 8.069-.106.857-.423 2.002-1.376 2.86 1.803-.325 3.241-.977 4.316-1.709A13.71 13.71 0 0 0 24 33Z"/><defs><linearGradient id="a" x1="24" x2="24" y1="6" y2="42" gradientUnits="userSpaceOnUse"><stop stop-color="#5AF575"/><stop offset="1" stop-color="#13BD2C"/></linearGradient></defs></svg>
